icons/Photoshop.svg

<svg xmlns="http://www.w3.org/2000/svg" width="256" height="256" fill="none" viewBox="0 0 256 256"><rect width="256" height="256" fill="#001E36" rx="60"/><path fill="#31A8FF" d="M57.6001 178.04V68.2799C57.6001 67.5332 57.9201 67.1066 58.6668 67.1066C60.4801 67.1066 62.1868 67.1066 64.6401 66.9999C67.2001 66.8932 69.8668 66.8932 72.7468 66.7866C75.6268 66.6799 78.7201 66.6799 82.0268 66.5732C85.3334 66.4666 88.5334 66.4666 91.7334 66.4666C100.48 66.4666 107.733 67.5332 113.707 69.7732C119.04 71.5866 123.947 74.5732 128 78.5199C131.413 81.9332 134.08 86.0932 135.787 90.6799C137.387 95.1599 138.24 99.7466 138.24 104.547C138.24 113.72 136.107 121.293 131.84 127.267C127.573 133.24 121.6 137.72 114.667 140.28C107.413 142.947 99.4134 143.907 90.6668 143.907C88.1068 143.907 86.4001 143.907 85.3334 143.8C84.2668 143.693 82.7734 143.693 80.7468 143.693V177.933C80.8534 178.68 80.3201 179.32 79.5734 179.427C79.4668 179.427 79.3601 179.427 79.1468 179.427H58.8801C58.0268 179.427 57.6001 179 57.6001 178.04ZM80.8534 87.6932V123.533C82.3468 123.64 83.7334 123.747 85.0134 123.747H90.6668C94.8268 123.747 98.9868 123.107 102.933 121.827C106.347 120.867 109.333 118.84 111.68 116.173C113.92 113.507 114.987 109.88 114.987 105.187C115.093 101.88 114.24 98.5732 112.533 95.6932C110.72 92.9199 108.16 90.7866 105.067 89.6132C101.12 88.0132 96.8534 87.3732 92.4801 87.4799C89.7068 87.4799 87.2534 87.4799 85.2268 87.5866C83.0934 87.4799 81.6001 87.5866 80.8534 87.6932Z"/><path fill="#31A8FF" d="M204.8 117.027C201.6 115.32 198.187 114.147 194.56 113.4C190.613 112.547 186.667 112.013 182.613 112.013C180.48 111.907 178.24 112.227 176.213 112.76C174.827 113.08 173.653 113.827 172.907 114.893C172.373 115.747 172.053 116.813 172.053 117.773C172.053 118.733 172.48 119.693 173.12 120.547C174.08 121.72 175.36 122.68 176.747 123.427C179.2 124.707 181.76 125.88 184.32 126.947C190.08 128.867 195.627 131.533 200.747 134.733C204.267 136.973 207.147 139.96 209.173 143.587C210.88 147 211.733 150.733 211.627 154.573C211.733 159.587 210.24 164.6 207.467 168.76C204.48 173.027 200.32 176.333 195.52 178.253C190.293 180.493 183.893 181.667 176.213 181.667C171.307 181.667 166.507 181.24 161.707 180.28C157.973 179.64 154.24 178.467 150.827 176.867C150.08 176.44 149.547 175.693 149.653 174.84V156.28C149.653 155.96 149.76 155.533 150.08 155.32C150.4 155.107 150.72 155.213 151.04 155.427C155.2 157.88 159.573 159.587 164.267 160.653C168.32 161.72 172.587 162.253 176.853 162.253C180.907 162.253 183.787 161.72 185.707 160.76C187.413 160.013 188.587 158.2 188.587 156.28C188.587 154.787 187.733 153.4 186.027 152.013C184.32 150.627 180.8 149.027 175.573 147C170.133 145.08 165.12 142.52 160.427 139.32C157.12 136.973 154.347 133.88 152.32 130.253C150.613 126.84 149.76 123.107 149.867 119.373C149.867 114.787 151.147 110.413 153.493 106.467C156.16 102.2 160.107 98.7866 164.693 96.6532C169.707 94.0932 176 92.9199 183.573 92.9199C187.947 92.9199 192.427 93.2399 196.8 93.8799C200 94.3066 203.093 95.1599 205.973 96.3332C206.4 96.4399 206.827 96.8666 207.04 97.2932C207.147 97.7199 207.253 98.1466 207.253 98.5732V115.96C207.253 116.387 207.04 116.813 206.72 117.027C205.76 117.24 205.227 117.24 204.8 117.027Z"/></svg>

<svg xmlns="http://www.w3.org/2000/svg" width="256" height="256" fill="none" viewBox="0 0 256 256"><rect width="256" height="256" fill="#001E36" rx="60"/><path fill="#31A8FF" d="M57.6 178.04V68.28c0-.75.32-1.17 1.07-1.17 1.81 0 3.52 0 5.97-.11 2.56-.1 5.23-.1 8.1-.21 2.89-.11 5.98-.11 9.29-.22s6.5-.1 9.7-.1c8.75 0 16 1.06 21.98 3.3A38 38 0 0 1 128 78.52a34 34 0 0 1 7.79 12.16 41 41 0 0 1 2.45 13.87q0 13.75-6.4 22.72a36.6 36.6 0 0 1-17.17 13.01c-7.26 2.67-15.26 3.63-24 3.63-2.56 0-4.27 0-5.34-.11-1.06-.1-2.56-.1-4.58-.1v34.23c.1.75-.43 1.39-1.18 1.5H58.88c-.85 0-1.28-.43-1.28-1.39m23.25-90.35v35.84c1.5.11 2.88.22 4.16.22h5.66c4.16 0 8.32-.64 12.26-1.92 3.42-.96 6.4-2.99 8.75-5.66 2.24-2.66 3.3-6.29 3.3-10.98.11-3.31-.74-6.62-2.45-9.5a15.5 15.5 0 0 0-7.46-6.08 31 31 0 0 0-12.59-2.13c-2.77 0-5.23 0-7.25.1-2.14-.1-3.63 0-4.38.11m123.95 29.34a38 38 0 0 0-10.24-3.63 56 56 0 0 0-11.95-1.39c-2.13-.1-4.37.22-6.4.75a5.5 5.5 0 0 0-3.3 2.13 5.7 5.7 0 0 0-.86 2.88c0 .96.43 1.92 1.07 2.78a12 12 0 0 0 3.63 2.88 98 98 0 0 0 7.57 3.52 77 77 0 0 1 16.43 7.78 25 25 0 0 1 8.42 8.86 23 23 0 0 1 2.46 10.98 25 25 0 0 1-4.16 14.19 26.7 26.7 0 0 1-11.95 9.5c-5.23 2.23-11.63 3.4-19.3 3.4-4.91 0-9.71-.42-14.51-1.38a43 43 0 0 1-10.88-3.41c-.75-.43-1.28-1.18-1.18-2.03v-18.56c0-.32.11-.75.43-.96s.64-.1.96.1a46 46 0 0 0 13.23 5.23 50 50 0 0 0 12.58 1.6c4.06 0 6.94-.53 8.86-1.49a5 5 0 0 0 2.88-4.48c0-1.5-.86-2.88-2.56-4.27s-5.23-2.98-10.46-5.01a65 65 0 0 1-15.14-7.68 28 28 0 0 1-8.11-9.07 23 23 0 0 1-2.45-10.88 25 25 0 0 1 3.62-12.9 26.3 26.3 0 0 1 11.2-9.82c5.02-2.56 11.31-3.73 18.88-3.73 4.38 0 8.86.32 13.23.96 3.2.43 6.3 1.28 9.17 2.45.43.11.86.54 1.07.96.1.43.21.86.21 1.28v17.39c0 .43-.21.85-.53 1.07-.96.21-1.5.21-1.92 0"/></svg>
